X:27
T:Banks of Green Willow
S:From W Vickery at East Worlington Sept 14th 1904
Z:Transcribed by David Jacobs, May 2014 
M:3/4
L:1/4
K:C
c|ece|dBG|A>B c/-A/|GDG|
w:Sea Cap-tain Sea Cap-tain dwon by the sea -side o He
G>A G|Gcc/-d/|edB|dc||
w:cant a fair dam-sel and *bought her with child o

